X: 46
T:Rope Waltz
M:3/4
L:1/4
Q:1/4=120
K:G
d c|:B>c d/2B/2|G2g|f>g a/2f/2|d2c|B>c  d/2B/2|G2B|A3|A d c|B>c  d/2
B/2|G2g|f>g a/2f/2|d2c|B>A G|A>c A/2F/2|G>A B/2A/2|1Gdc:|2Gga|
:b2a|g2 f|gfe|d3|c'2b|a2g|f>g a/2f/2|dga|b2a|g2 f|gfe|d>B G/2A/2|B>d B/2
G/2|A>c A/
2F/2|GBA|1Gga:|2G3|
